X:5
T:En famille, en peuple, en Eglise...
M:C
L:1/8
K:Eb
"^Refrain"zB,CE-|"Mib"E2z2z2B,F-|"Sib"F2z2zGA2|"Lab6"G4"Sib"F4|"Mib"E4z2E2|
"Lab"A2A2Bc2B-|"Mib"B2G2FE2E-|"Dom7"E4G3F-|"Sib"F4zB,CE-|
"Mib"E2z2z2B,F-|"Sib"F2z2zGA2|"Lab6"G4"Sib"F4|"Mib"E4"z2Mib7"E2|
"Lab"A2A2Bc2B-|"Mib"B2G2"Lab6"FE2G-|"Mib"G4"Sib"F3E-|"Mib"E2||
"^Couplets"z2E2|"Lab7"A2A2A2E2|"Mib"GF2E-E2E2|"Sib"F2F2EF2G-|
"Mib7"G2FE-E3E|"Lab7"A2A2A2E2|"Mib"GF2E-E4|"Fa7"F2F2=Ac2B-|"Sib"B4!D.C.!||
